X:1
T:INTERESTING DRUG
C:Street
Z:All Rights Reserved
L:1/8
Q:1/4=120
M:4/4
K:Bb
V:1 treble nm="MusicXML Part"
%%MIDI program 0
V:1
"F" z2 z2 z2 z2 |"Eb" z2 z F F2 F2 |"Bb" B8 |"Eb" A>G- GF- FD-F"F"F- | F4 z4 |"Eb" B2 A2 F2 B2 | %6
w: |There are some|bad|peo ple _ on _ _ _ the|rise|There are some bad|
"Bb" B8 |"Eb" A>G- GF- FD-FF- |"F" F4 z4 |"Eb" z4 z2 F2 |"Bb" B>F- F2 GAz"Eb"B- | B2 A6 | %12
w: bad|peo ple _ on _ _ _ the|rise|They're|sav ing _ their own skins|_ by|
"F" G>A- AA- AB-B"Eb"B- | BF- F6 |"Bb" B4 B4 |"Eb" A>G- GF- FD-F"F"F- | F4 z4 | z2 z2 z2 z2 | %18
w: Ru'in ing _ peo _ ple's _ lives|_ _ _|Bad, bad|peo ple _ on _ _ _ the|rise||
"Bb" B2 FF GAzB- |"Eb" BG- G>F- FD-DF- |"F" FF- F6 |"Eb" z2 z2 z2 z2 |"Bb" B2 FF GAzB- | %23
w: Young mar ried cou ple in|_ debt _ ev _ er _ felt|_ had? _||Young mar ried cou ple in|
"Eb" BG- G>F- FD-DF- |"F" FF- F6 |"Eb" z2 z2 z2 BB |:"Dm" A/A/A z A- AAGA |"Eb" B>G- GG- G4 | %28
w: _ debt _ ev _ er _ felt|_ had? _|On a|gov ern ment scheme _ de signed to|kill your _ dreams _|
"Dm" G2 AA- BB- B2- |"Eb" B4 z4 |"Dm" A4 d4 |"Eb" AA-Ad- d4 |"C7" B2 A2 G>A- A>A- | %33
w: Oh mum, Oh _ Dad _|_|Once poor|Al ways _ poor _|la la la la _ an|
"Eb" A<B AG-"F" GABB- |"Bb" B2 z F FGAB |"Eb" z2 GA B2 G2- |"F" G<A G>A- A>A- AB | %37
w: _ in ter est _ ing _ Drug|_ The one that you took|tell the truth it|_ real ly helped _ you _ an|
"Eb" B2 AG- GABB- |"Bb" B2 z F FGAB |"Eb" z4 GB- B2 |"F" B2 A>A- A>B- B>B- |"Eb" B>F- F4 F2 | %42
w: In ter est _ ing _ Drug|_ The one that you took|Gosh it _|real ly real _ ly _ helped|_ you _ You|
"Bb" BB-BB- B>G- G/Bc/- |"Eb" c/BG/ G2- G>G G/G/G |"F" G2 GA- AB- B2 |"Eb" z2 z B BBcB | %46
w: won der _ why _ we're _ on ly|_ half as hamed _ be _ cause en|ough is too _ much _|and look ar ound _|
"Bb" z4 c2 dd- |"Eb" dB- B2 f2 ed- |"F" dB- B6 |"Eb" z2 z2 z2 BB :| %50
w: Can you blame|_ us _ Can you blame|_ us? _|On a|

